fs/document_footer_dismiss_20_regular.svg

<svg viewBox="0 0 20 20" fill="none" xmlns="http://www.w3.org/2000/svg" height="1em" width="1em">
  <path d="M19 5.5C19 7.98528 16.9853 10 14.5 10C12.0147 10 10 7.98528 10 5.5C10 3.01472 12.0147 1 14.5 1C16.9853 1 19 3.01472 19 5.5ZM16.3536 4.35355C16.5488 4.15829 16.5488 3.84171 16.3536 3.64645C16.1583 3.45118 15.8417 3.45118 15.6464 3.64645L14.5 4.79289L13.3536 3.64645C13.1583 3.45118 12.8417 3.45118 12.6464 3.64645C12.4512 3.84171 12.4512 4.15829 12.6464 4.35355L13.7929 5.5L12.6464 6.64645C12.4512 6.84171 12.4512 7.15829 12.6464 7.35355C12.8417 7.54882 13.1583 7.54882 13.3536 7.35355L14.5 6.20711L15.6464 7.35355C15.8417 7.54882 16.1583 7.54882 16.3536 7.35355C16.5488 7.15829 16.5488 6.84171 16.3536 6.64645L15.2071 5.5L16.3536 4.35355ZM15 16V10.9776C15.3434 10.9466 15.6777 10.8841 16 10.793V16C16 17.1046 15.1046 18 14 18H6C4.89543 18 4 17.1046 4 16V4C4 2.89543 4.89543 2 6 2H10.2572C10.0035 2.30711 9.78261 2.64222 9.59971 3H6C5.44772 3 5 3.44772 5 4V16C5 16.5523 5.44772 17 6 17H14C14.5523 17 15 16.5523 15 16ZM7 14C6.44772 14 6 14.4477 6 15C6 15.5523 6.44772 16 7 16H13C13.5523 16 14 15.5523 14 15C14 14.4477 13.5523 14 13 14H7Z" fill="#212121"/>
</svg>

<svg viewBox="0 0 20 20" fill="none" xmlns="http://www.w3.org/2000/svg" height="1em" width="1em">
  <path d="M19 5.5a4.5 4.5 0 1 1-9 0 4.5 4.5 0 0 1 9 0Zm-2.646-1.146a.5.5 0 0 0-.708-.708L14.5 4.793l-1.146-1.147a.5.5 0 0 0-.708.708L13.793 5.5l-1.147 1.146a.5.5 0 0 0 .708.708L14.5 6.207l1.146 1.147a.5.5 0 0 0 .708-.708L15.207 5.5l1.147-1.146ZM15 16v-5.022a5.489 5.489 0 0 0 1-.185V16a2 2 0 0 1-2 2H6a2 2 0 0 1-2-2V4a2 2 0 0 1 2-2h4.257A5.504 5.504 0 0 0 9.6 3H6a1 1 0 0 0-1 1v12a1 1 0 0 0 1 1h8a1 1 0 0 0 1-1Zm-8-2a1 1 0 1 0 0 2h6a1 1 0 1 0 0-2H7Z" fill="#212121"/>
</svg>
